images/cicle.svg

<svg width="101" height="100" fill="none" xmlns="http://www.w3.org/2000/svg"><path d="M63 32.02s4.132 13.465 5.5 17c1.369 3.533 3.14 8.972 3.14 8.972" stroke="#000" stroke-width="2" stroke-miterlimit="10" stroke-linecap="round" stroke-linejoin="round"/><path d="M57.498 29.95c1.41-.61 2.502.07 2.502.07l3 2 5.5 3s2.5 1.5-1 2m-3 1.5s-3.497 1.56-9.659 3.57a898.735 898.735 0 0 0-9.82 3.293m5.795 11.645 13.66-18.383m-13.088 19.5c-1.444-3.873-8.511-1.723-5.566 3.186 1.842 3.071 6.72-.084 5.566-3.186Zm-4.012-1.89-4.169-18.608" stroke="#000" stroke-width="2" stroke-miterlimit="10" stroke-linecap="round" stroke-linejoin="round"/><path d="M41 38.02s.452-.433 3.14-.81c2.042-.285 4.98-.118 3.36-1.313-1.619-1.195-6.262-1.993-8.5 0-2.238 1.993-1.382 3.364 2 2.123Z" fill="#000" stroke="#000" stroke-width="2" stroke-miterlimit="10" stroke-linecap="round" stroke-linejoin="round"/><path d="M48.038 59.5S51 62.02 52 63.02m-6.828-3.537-14.22-1.096m13.858-12.86L30.902 57.685m28.502 3.823C57.688 54.852 62 46.393 71.951 46.394c8.05 0 14.549 10.625 8.897 18.9-5.63 7.288-18.99 5.725-21.444-3.785ZM20 61.52c-1.717-6.657 2.096-15.51 11.046-15.511 8.95 0 15.434 10.945 8.95 19.337-5.63 7.288-17.803 4.672-19.996-3.827Z" stroke="#000" stroke-width="2" stroke-miterlimit="10" stroke-linecap="round" stroke-linejoin="round"/><path d="M29.522 56.943c-1.728 1.633 1.712 4.633 2.654 1.813.943-2.82-1.856-2.567-2.654-1.813Zm41.051-.021c-1.728 1.633 1.117 3.942 2.174 1.793.882-1.793-1.377-2.547-2.174-1.793Z" fill="#000" stroke="#000" stroke-width="2" stroke-miterlimit="10" stroke-linecap="round" stroke-linejoin="round"/></svg>

<svg width="101" height="100" fill="none" xmlns="http://www.w3.org/2000/svg"><path d="M63 32.02s4.132 13.465 5.5 17c1.369 3.533 3.14 8.972 3.14 8.972" stroke="#000" stroke-width="2" stroke-miterlimit="10" stroke-linecap="round" stroke-linejoin="round"/><path d="M57.498 29.95c1.41-.61 2.502.07 2.502.07l3 2 5.5 3s2.5 1.5-1 2M64.5 38.52s-3.497 1.56-9.659 3.57a898.735 898.735 0 0 0-9.82 3.293M50.816 57.028l13.66-18.383M51.388 58.145c-1.444-3.873-8.511-1.723-5.566 3.186 1.842 3.071 6.72-.084 5.566-3.186ZM47.376 56.255l-4.169-18.608" stroke="#000" stroke-width="2" stroke-miterlimit="10" stroke-linecap="round" stroke-linejoin="round"/><path d="M41 38.02s.452-.433 3.14-.81c2.042-.285 4.98-.118 3.36-1.313-1.619-1.195-6.262-1.993-8.5 0-2.238 1.993-1.382 3.364 2 2.123Z" fill="#000" stroke="#000" stroke-width="2" stroke-miterlimit="10" stroke-linecap="round" stroke-linejoin="round"/><path d="M48.038 59.5S51 62.02 52 63.02M45.172 59.483l-14.22-1.096M44.81 45.527 30.902 57.685M59.404 61.508C57.688 54.852 62 46.393 71.951 46.394c8.05 0 14.549 10.625 8.897 18.9-5.63 7.288-18.99 5.725-21.444-3.785ZM20 61.52c-1.717-6.657 2.096-15.51 11.046-15.511 8.95 0 15.434 10.945 8.95 19.337-5.63 7.288-17.803 4.672-19.996-3.827Z" stroke="#000" stroke-width="2" stroke-miterlimit="10" stroke-linecap="round" stroke-linejoin="round"/><path d="M29.522 56.943c-1.728 1.633 1.712 4.633 2.654 1.813.943-2.82-1.856-2.567-2.654-1.813ZM70.573 56.922c-1.728 1.633 1.117 3.942 2.174 1.793.882-1.793-1.377-2.547-2.174-1.793Z" fill="#000" stroke="#000" stroke-width="2" stroke-miterlimit="10" stroke-linecap="round" stroke-linejoin="round"/></svg>
